img/mixi.svg

<svg width="240" height="220" viewBox="0 0 240 220" fill="none" xmlns="http://www.w3.org/2000/svg">
<path d="M219.623 38.254C199.308 -33.3838 140.562 78.4059 116.949 16.1844C100.691 -26.6452 33.8163 22.5258 17.6202 82.1871C8.32986 116.395 26.446 138.332 73.9041 109.156C111.669 85.9389 134.926 91.8683 130.885 133.3C129.089 151.721 151.509 165.845 184.412 146.189C221.667 123.943 230.756 77.6114 219.607 38.2687L219.623 38.254Z" fill="url(#paint0_linear_7094_447886)"/>
<path d="M0 193.079H7.89677V195.124L8.00516 195.169C10.0026 193.668 12.5265 192.52 15.7471 192.52C18.6426 192.52 21.5845 193.521 23.2258 195.919C25.8581 193.771 28.9548 192.52 32.3768 192.52C35.2723 192.52 37.5794 193.418 39.1587 195.021C40.7381 196.625 41.4813 198.714 41.4813 202.275V217.871H33.4761V203.526C33.4761 201.775 33.2129 200.877 32.5316 200.127C31.8503 199.377 30.7974 199.082 29.6981 199.082C27.809 199.082 26.0129 199.936 24.6968 201.039C24.7432 201.333 24.7432 201.745 24.7432 202.084V217.886H16.7381V203.54C16.7381 201.834 16.5213 200.892 15.7935 200.142C15.0503 199.391 14.0594 199.097 12.8981 199.097C11.1019 199.097 9.27484 199.994 8.00516 201.054V217.9H0V193.109V193.079Z" fill="black"/>
<path d="M69.7695 185.326C69.7695 182.927 71.8753 180.97 74.3992 180.97C76.9231 180.97 79.0289 182.927 79.0289 185.326C79.0289 187.724 76.9231 189.681 74.3992 189.681C71.8753 189.681 69.7695 187.724 69.7695 185.326ZM70.4044 198.376H78.4095V217.871H70.4044V198.376Z" fill="black"/>
<path d="M161.682 185.326C161.682 182.927 163.787 180.97 166.311 180.97C168.835 180.97 170.941 182.927 170.941 185.326C170.941 187.724 168.835 189.681 166.311 189.681C163.787 189.681 161.682 187.724 161.682 185.326ZM162.316 198.376H170.322V217.871H162.316V198.376Z" fill="black"/>
<path d="M115.634 204.982L106.592 193.079H115.541L117.756 196.228C118.7 197.582 119.645 198.979 120.496 200.333H120.605C121.549 198.876 122.494 197.537 123.438 196.184L125.652 193.079H134.076L125.033 204.923L134.865 217.871H125.761L123.082 214.075C122.138 212.721 121.023 211.132 120.14 209.779H120.032C119.196 211.132 118.081 212.721 117.136 214.075L114.458 217.871H105.941L115.681 204.967L115.634 204.982Z" fill="black"/>
<path d="M213.043 217.871V217.768L223.99 203.526C227.675 198.729 229.626 195.978 229.626 193.021C229.626 189.725 227.211 187.915 223.68 187.915C220.367 187.915 217.053 189.46 214.266 192.064V184.914C216.635 182.81 220.522 181.118 224.997 181.118C232.475 181.118 237.786 185.561 237.786 192.27C237.786 197.022 235.154 200.921 231.159 205.821L226.839 211.118L226.886 211.221H239.52V217.871H213.058H213.043Z" fill="black"/>
<defs>
<linearGradient id="paint0_linear_7094_447886" x1="58.8228" y1="23.4674" x2="194.838" y2="141.073" gradientUnits="userSpaceOnUse">
<stop stop-color="#FF79A1"/>
<stop offset="1" stop-color="#FF9A00"/>
</linearGradient>
</defs>
</svg>

<svg xmlns="http://www.w3.org/2000/svg" width="240" height="220" fill="none"><path fill="url(#a)" d="M219.623 38.254c-20.315-71.638-79.061 40.152-102.674-22.07-16.258-42.83-83.133 6.342-99.329 66.003-9.29 34.208 8.826 56.145 56.284 26.969 37.765-23.217 61.022-17.288 56.981 24.144-1.796 18.421 20.624 32.545 53.527 12.889 37.255-22.246 46.344-68.578 35.195-107.92z"/><path fill="#000" d="M0 193.079h7.897v2.045l.108.045c1.998-1.501 4.522-2.649 7.742-2.649 2.896 0 5.837 1.001 7.479 3.399 2.632-2.148 5.729-3.399 9.15-3.399 2.896 0 5.203.898 6.783 2.501 1.58 1.604 2.322 3.693 2.322 7.254v15.596h-8.005v-14.345c0-1.751-.263-2.649-.944-3.399-.682-.75-1.735-1.045-2.834-1.045-1.889 0-3.685.854-5.001 1.957.046.294.046.706.046 1.045v15.802h-8.005V203.54c0-1.706-.217-2.648-.944-3.398-.744-.751-1.735-1.045-2.896-1.045-1.796 0-3.623.897-4.893 1.957V217.9H0v-24.821M69.77 185.326c0-2.399 2.105-4.356 4.63-4.356 2.523 0 4.629 1.957 4.629 4.356s-2.106 4.355-4.63 4.355-4.63-1.957-4.63-4.355m.634 13.05h8.005v19.495h-8.005zM161.682 185.326c0-2.399 2.105-4.356 4.629-4.356s4.63 1.957 4.63 4.356-2.106 4.355-4.63 4.355-4.629-1.957-4.629-4.355m.634 13.05h8.006v19.495h-8.006zM115.634 204.982l-9.042-11.903h8.949l2.215 3.149a105 105 0 0 1 2.74 4.105h.109c.944-1.457 1.889-2.796 2.833-4.149l2.214-3.105h8.424l-9.043 11.844 9.832 12.948h-9.104l-2.679-3.796c-.944-1.354-2.059-2.943-2.942-4.296h-.108c-.836 1.353-1.951 2.942-2.896 4.296l-2.678 3.796h-8.517l9.74-12.904zM213.043 217.871v-.103l10.947-14.242c3.685-4.797 5.636-7.548 5.636-10.505 0-3.296-2.415-5.106-5.946-5.106-3.313 0-6.627 1.545-9.414 4.149v-7.15c2.369-2.104 6.256-3.796 10.731-3.796 7.478 0 12.789 4.443 12.789 11.152 0 4.752-2.632 8.651-6.627 13.551l-4.32 5.297.047.103h12.634v6.65h-26.477"/><defs><linearGradient id="a" x1="58.823" x2="194.838" y1="23.467" y2="141.073" gradientUnits="userSpaceOnUse"><stop stop-color="#FF79A1"/><stop offset="1" stop-color="#FF9A00"/></linearGradient></defs></svg>
